X: 140049
T: MONEY IN BOTH POCKETS
Q: "Irish Jig."
R: Jig.
%R: jig
B: James Kerr "Merry Melodies" v.1 p.40 s.0 #49
Z: 2016 John Chambers <jc:trillian.mit.edu>
M: 6/8
L: 1/8
K: D
uc |\
vd2vF FEF | ABA ABc | vd2vF FEF | ABA gfe |\
vd2vF FEF | ABA A2F | EFE   EFA | BcB B2 :|
|: uc |\
dfa  afd  | cea ecA | dfa   afd | g3 (f2g) |\
agf  bag  | agf fde | fdB   AFA | BcB B2 :|

%%sep 1 1 500
%%sep 1 1 500

